X: 14142
T: The Irish Footman
%R: jig
B: James Oswald "The Caledonian Pocket Companion" v.1 b.4 p.14 #1
S: https://ia800501.us.archive.org/18/items/caledonianpocket01rugg/caledonianpocket01rugg_bw.pdf
Z: 2020 John Chambers <jc:trillian.mit.edu>
M: 6/8
L: 1/8
K: Bm	% and/or Amix
|: "_Brisk"\
B2c d2e | fed Tc3 | B2c d2e | f2g fdB | B2c d2e | fed Tc3 | A2B c2d | e2a ecA :|
|: (a2f) (g2e) | (f2d) Tc3 | B2c d2e | f2g (fd)B | aaf gge | ffd Tc3 | A2B c2d | e2a (ec)A :|
|: (BcB) d2e | f2B d2b | (fd)B d2e | f2g (fd)B | BdB cec | dfd ef^g | a3 Tf2d | c2A ecA :|
|: af/(^g/a) (d2B) | (a2f) (d2B) | af/(^g/a) d2B | c2A ecA | afa =geg | fdf ece | (d/e/f)d (e/f/g)e | (f/^g/a)f ecA :|
|: Bdf dfb | ged c2f | b2B d2e | fge fdB | Bdf dfb | fd'c' baf | e2A Tc2d | e2a ecA :|
|: bBB dBB | bBB d2B | bBB dBB | cAa ecA | bBB dBB | bBB b2a | fba fed | Tc2A ecA :|


